X:1
T:Let Erin Remember
M:C
L:1/8
Q:80
C:Trad.
S:March
K:HP
{g}e2 | \
{g}A2{GAG}AB{GdG}c2c3/2d/2 | \
{g}e2{G}e2{Gdc}d2{g}c3/2d/2 |
{g}e2{G}e3/2f/2{gcd}c2{e}A2 | \
{gBd}B4{G}A2:| [ | \
{gcd}ce| |
{ag}a2{g}a2{f}g2{fg}fe | \
{gfg}f2{gef}ec{gef}e2{gcd}cB | \
{G}A2{g}B{d}c{gBd}B2{g}B{d}c |
{gBd}B4{gcd}c2{gef}e2 | \
{ag}a2{g}a2{f}g2{fg}fe | \
{gfg}f2{gef}ec{gef}e2{gcd}cB |
{G}A2{g}B{d}c{gBd}B2{g}B{d}c | \
{gBd}B4{G}A2|]
